;FLAVOR:Marlin
;TIME:9246
;Filament used: 6.0044m
;Layer height: 0.2
;MINX:40.521
;MINY:60.507
;MINZ:0.2
;MAXX:159.56
;MAXY:172.287
;MAXZ:16.2
;Generated with Cura_SteamEngine 4.2.1
M140 S50
M105
M190 S50
M104 S200
M105
M109 S200
M82 ;absolute extrusion mode
M201 X500.00 Y500.00 Z100.00 E5000.00 ;Setup machine max acceleration
M203 X500.00 Y500.00 Z10.00 E50.00 ;Setup machine max feedrate
M204 P500.00 R1000.00 T500.00 ;Setup Print/Retract/Travel acceleration
M205 X8.00 Y8.00 Z0.40 E5.00 ;Setup Jerk
M220 S100 ;Reset Feedrate
M221 S100 ;Reset Flowrate

G28 ;Home

G92 E0 ;Reset Extruder
G1 Z2.0 F3000 ;Move Z Axis up
G1 X10.1 Y20 Z0.28 F5000.0 ;Move to start position
G1 X10.1 Y200.0 Z0.28 F1500.0 E15 ;Draw the first line
G1 X10.4 Y200.0 Z0.28 F5000.0 ;Move to side a little
G1 X10.4 Y20 Z0.28 F1500.0 E30 ;Draw the second line
G92 E0 ;Reset Extruder
G1 Z2.0 F3000 ;Move Z Axis up

M141 S28
G92 E0
G92 E0
G1 F2700 E-5
;LAYER_COUNT:80
;LAYER:0
M107
G0 F6000 X71.909 Y112.474 Z0.2
;TYPE:SKIRT
G1 F2700 E0
G1 F1200 X71.751 Y112.631 E0.00815
G1 X71.49 Y112.856 E0.02076
G1 X70.908 Y113.31 E0.04776
G1 X71.083 Y113.419 E0.05531
G1 X71.721 Y113.912 E0.0848
G1 X72.054 Y114.226 E0.10155
G1 X90.683 Y114.239 E0.78311
G1 X91.488 Y114.28 E0.8126
G1 X92.286 Y114.4 E0.84213
G1 X93.068 Y114.598 E0.87164
G1 X93.826 Y114.873 E0.90114
G1 X94.554 Y115.222 E0.93068
G1 X94.986 Y115.484 E0.94916
G1 X95.393 Y114.942 E0.97396
G1 X95.894 Y114.393 E1.00115
G1 X96.023 Y114.264 E1.00783
G1 X96.425 Y113.9 E1.02767
G1 X96.091 Y113.432 E1.0487
G1 X95.689 Y112.733 E1.07821
G1 X95.358 Y111.997 E1.10773
G1 X95.101 Y111.232 E1.13726
G1 X95.069 Y111.091 E1.14255
G1 X95.042 Y111.111 E1.14378
G1 X94.349 Y111.524 E1.17329
G1 X93.619 Y111.866 E1.20278
G1 X92.858 Y112.135 E1.23231
G1 X92.074 Y112.327 E1.26185
G1 X91.276 Y112.44 E1.29133
G1 X90.533 Y112.474 E1.31854
G1 X71.909 Y112.474 E1.99993
G0 F6000 X71.73 Y112.034
G1 F1200 X71.464 Y112.298 E2.01364
G1 X71.203 Y112.523 E2.02624
G1 X70.583 Y113.004 E2.05495
G1 X70.081 Y113.318 E2.07662
G1 X70.184 Y113.376 E2.08094
G1 X70.849 Y113.793 E2.10966
G1 X71.468 Y114.275 E2.13836
G1 X71.858 Y114.666 E2.15857
G1 X90.682 Y114.679 E2.84726
G1 X91.466 Y114.72 E2.87599
G1 X92.241 Y114.84 E2.90468
G1 X93 Y115.038 E2.93338
G1 X93.735 Y115.312 E2.96208
G1 X94.439 Y115.66 E2.99081
G1 X95.103 Y116.078 E3.01951
G1 X95.119 Y116.09 E3.02025
G1 X95.346 Y115.728 E3.03588
G1 X95.829 Y115.109 E3.0646
G1 X96.205 Y114.704 E3.08482
G1 X96.334 Y114.575 E3.0915
G1 X96.917 Y114.049 E3.12022
G1 X97.035 Y113.962 E3.12559
G1 X96.685 Y113.523 E3.14613
G1 X96.26 Y112.863 E3.17485
G1 X95.904 Y112.164 E3.20355
G1 X95.622 Y111.432 E3.23225
G1 X95.415 Y110.675 E3.26096
G1 X95.358 Y110.332 E3.27368
G1 X94.763 Y110.768 E3.30067
G1 X94.086 Y111.165 E3.32938
G1 X93.372 Y111.491 E3.3581
G1 X92.629 Y111.743 E3.3868
G1 X91.864 Y111.918 E3.41552
G1 X91.085 Y112.014 E3.44423
G1 X90.533 Y112.034 E3.46444
G1 X71.73 Y112.034 E4.15237
G0 F6000 X71.176 Y111.965
G1 F1200 X70.915 Y112.19 E4.16498
G1 X70.313 Y112.656 E4.19283
G1 X69.665 Y113.057 E4.22071
G1 X69.097 Y113.319 E4.2436
G1 X69.674 Y113.596 E4.26701
G1 X69.97 Y113.761 E4.27941
G1 X70.615 Y114.166 E4.30728
G1 X71.214 Y114.637 E4.33515
G1 X71.679 Y115.106 E4.35932
G1 X90.682 Y115.119 E5.05456
G1 X91.443 Y115.16 E5.08245
G1 X92.195 Y115.28 E5.11031
G1 X92.931 Y115.478 E5.13819
G1 X93.642 Y115.752 E5.16607
G1 X94.32 Y116.099 E5.19393
G1 X94.958 Y116.515 E5.2218
G1 X95.241 Y116.757 E5.23542
G1 X95.367 Y116.511 E5.24554
G1 X95.783 Y115.872 E5.27343
G1 X96.516 Y115.015 E5.31469
G1 X96.645 Y114.886 E5.32137
G1 X97.212 Y114.377 E5.34924
G1 X97.685 Y114.033 E5.37064
G1 X97.276 Y113.574 E5.39313
G1 X96.83 Y112.956 E5.42102
G1 X96.453 Y112.294 E5.44889
G1 X96.146 Y111.597 E5.47675
G1 X95.915 Y110.871 E5.50463
G1 X95.76 Y110.125 E5.5325
G1 X95.707 Y109.428 E5.55808
G1 X95.667 Y109.468 E5.56015
G1 X95.1 Y109.977 E5.58802
G1 X94.484 Y110.425 E5.61589
G1 X93.824 Y110.805 E5.64375
G1 X93.128 Y111.115 E5.67163
G1 X92.403 Y111.349 E5.6995
G1 X91.657 Y111.506 E5.72739
G1 X90.533 Y111.594 E5.76864
G1 X71.552 Y111.594 E6.46308
G1 X71.176 Y111.965 E6.48241
G0 F6000 X70.889 Y111.632
G1 F1200 X70.628 Y111.857 E6.49502
G1 X70.044 Y112.308 E6.52201
G1 X69.414 Y112.693 E6.54902
G1 X68.6 Y113.065 E6.58177
G1 X68.274 Y113.189 E6.59453
G1 X67.816 Y113.335 E6.61212
G1 X68.049 Y113.39 E6.62087
G1 X68.746 Y113.635 E6.6479
G1 X69.46 Y113.98 E6.67692
G1 X69.756 Y114.145 E6.68932
G1 X70.38 Y114.539 E6.71631
G1 X70.958 Y114.998 E6.74332
G1 X71.498 Y115.546 E6.77147
G1 X90.682 Y115.559 E7.47334
G1 X91.419 Y115.599 E7.50034
G1 X92.148 Y115.719 E7.52737
G1 X92.859 Y115.917 E7.55437
G1 X93.545 Y116.191 E7.5814
G1 X94.197 Y116.537 E7.6084
G1 X94.808 Y116.952 E7.63543
G1 X95.39 Y117.462 E7.66374
G1 X95.46 Y117.286 E7.67067
G1 X95.806 Y116.633 E7.6977
G1 X96.22 Y116.022 E7.72471
G1 X96.828 Y115.327 E7.75849
G1 X96.957 Y115.198 E7.76517
G1 X97.506 Y114.704 E7.79219
G1 X98.106 Y114.274 E7.81919
G1 X98.392 Y114.112 E7.83122
G1 X98.384 Y114.106 E7.83158
G1 X97.861 Y113.584 E7.85862
G1 X97.399 Y113.009 E7.8856
G1 X97.001 Y112.387 E7.91262
G1 X96.673 Y111.725 E7.93965
G1 X96.418 Y111.032 E7.96667
G1 X96.239 Y110.316 E7.99367
G1 X96.14 Y109.584 E8.02069
G1 X96.117 Y109.029 E8.04102
G1 X96.117 Y108.295 E8.06787
G1 X96.092 Y108.332 E8.0695
G1 X95.484 Y109.027 E8.10329
G1 X95.355 Y109.156 E8.10996
G1 X94.806 Y109.65 E8.13698
G1 X94.206 Y110.08 E8.16399
G1 X93.563 Y110.444 E8.19102
G1 X92.885 Y110.736 E8.21803
G1 X92.179 Y110.952 E8.24504
G1 X91.454 Y111.092 E8.27206
G1 X90.533 Y111.154 E8.30583
G1 X71.377 Y111.154 E9.00667
G1 X70.889 Y111.632 E9.03167
G0 F6000 X70.602 Y111.298
G1 F1200 X70.341 Y111.523 E9.04427
G1 X69.775 Y111.959 E9.07041
G1 X69.163 Y112.328 E9.09656
G1 X68.443 Y112.654 E9.12548
G1 X68.117 Y112.778 E9.13824
G1 X67.437 Y112.994 E9.16434
G1 X66.736 Y113.133 E9.19049
G1 X66.228 Y113.184 E9.20917
G1 X65.909 Y113.203 E9.22086
G1 X65.53 Y113.214 E9.23473
G1 X48.79 Y113.214 E9.84718
G1 X48.077 Y113.174 E9.87331
G1 X47.373 Y113.055 E9.89943
G1 X46.687 Y112.857 E9.92555
G1 X46.027 Y112.584 E9.95168
G1 X45.401 Y112.24 E9.97782
G1 X44.818 Y111.827 E10.00396
G1 X44.279 Y111.345 E10.03041
G1 X44.15 Y111.216 E10.03709
G1 X43.674 Y110.684 E10.0632
G1 X43.26 Y110.102 E10.08933
G1 X42.915 Y109.477 E10.11545
G1 X42.641 Y108.817 E10.1416
G1 X42.442 Y108.131 E10.16773
G1 X42.322 Y107.427 E10.19386
G1 X42.281 Y106.705 E10.22032
G1 X42.281 Y78.963 E11.23529
G1 X42.321 Y78.25 E11.26142
G1 X42.44 Y77.546 E11.28754
G1 X42.638 Y76.86 E11.31366
G1 X42.911 Y76.2 E11.33979
G1 X43.255 Y75.574 E11.36593
G1 X43.668 Y74.991 E11.39206
G1 X44.15 Y74.452 E11.41852
G1 X44.279 Y74.323 E11.42519
G1 X44.811 Y73.847 E11.45131
G1 X45.393 Y73.433 E11.47744
G1 X46.018 Y73.088 E11.50356
G1 X46.678 Y72.814 E11.52971
G1 X47.364 Y72.615 E11.55584
G1 X48.068 Y72.495 E11.58197
G1 X48.79 Y72.454 E11.60842
G1 X65.667 Y72.454 E12.22589
G1 X66.38 Y72.494 E12.25202
G1 X66.775 Y72.551 E12.26662
G1 X67.104 Y72.609 E12.27884
G1 X67.799 Y72.772 E12.30496
G1 X68.472 Y73.012 E12.3311
G1 X69.137 Y73.339 E12.35821
G1 X69.434 Y73.507 E12.37069
G1 X70.035 Y73.893 E12.39683
G1 X70.589 Y74.343 E12.42294
G1 X71.125 Y74.894 E12.45106
G1 X71.167 Y74.942 E12.4534
G1 X90.536 Y74.954 E13.16203
G1 X91.249 Y74.994 E13.18816
G1 X91.953 Y75.114 E13.21429
G1 X92.639 Y75.312 E13.24041
G1 X93.299 Y75.585 E13.26654
G1 X93.924 Y75.93 E13.29266
G1 X94.507 Y76.343 E13.3188
G1 X95.043 Y76.823 E13.34513
G1 X95.172 Y76.952 E13.3518
G1 X95.648 Y77.484 E13.37792
G1 X96.062 Y78.066 E13.40405
G1 X96.407 Y78.691 E13.43017
G1 X96.681 Y79.351 E13.45631
G1 X96.88 Y80.037 E13.48244
G1 X97 Y80.741 E13.50857
G1 X97.041 Y81.463 E13.53503
G1 X97.041 Y83.205 E13.59876
G1 X97.001 Y83.918 E13.62489
G1 X96.882 Y84.622 E13.65101
G1 X96.684 Y85.308 E13.67714
G1 X96.411 Y85.968 E13.70327
G1 X96.067 Y86.594 E13.7294
G1 X95.654 Y87.177 E13.75554
G1 X95.172 Y87.716 E13.78199
G1 X95.043 Y87.845 E13.78867
G1 X94.511 Y88.321 E13.81479
G1 X93.929 Y88.735 E13.84092
G1 X93.304 Y89.08 E13.86704
G1 X92.644 Y89.354 E13.89318
G1 X91.958 Y89.553 E13.91931
G1 X91.254 Y89.673 E13.94544
G1 X90.532 Y89.714 E13.9719
G1 X65.655 Y89.714 E14.88205
G1 X64.942 Y89.674 E14.90818
G1 X64.547 Y89.617 E14.92278
G1 X64.218 Y89.559 E14.935
G1 X63.523 Y89.396 E14.96112
G1 X62.85 Y89.156 E14.98726
G1 X62.191 Y88.833 E15.01411
G1 X61.895 Y88.666 E15.02655
G1 X61.294 Y88.28 E15.05268
G1 X60.739 Y87.83 E15.07882
G1 X60.191 Y87.267 E15.10757
G1 X60.152 Y87.221 E15.10977
G1 X57.041 Y87.219 E15.22359
G1 X57.041 Y98.454 E15.63464
G1 X60.132 Y98.454 E15.74772
G1 X60.176 Y98.4 E15.75027
G1 X60.735 Y97.857 E15.77879
G1 X60.995 Y97.634 E15.79132
G1 X61.563 Y97.2 E15.81747
G1 X62.175 Y96.833 E15.84358
G1 X62.889 Y96.511 E15.87223
G1 X63.219 Y96.386 E15.88514
G1 X63.9 Y96.17 E15.91128
G1 X64.601 Y96.033 E15.93742
G1 X65.194 Y95.978 E15.9592
G1 X65.597 Y95.96 E15.97396
G1 X65.882 Y95.954 E15.98439
G1 X90.533 Y95.954 E16.88628
G1 X91.246 Y95.994 E16.9124
G1 X91.95 Y96.113 E16.93853
G1 X92.636 Y96.311 E16.96465
G1 X93.296 Y96.584 E16.99078
G1 X93.922 Y96.928 E17.01691
G1 X94.505 Y97.341 E17.04305
G1 X95.044 Y97.823 E17.06951
G1 X95.173 Y97.952 E17.07618
G1 X95.649 Y98.484 E17.1023
G1 X96.063 Y99.066 E17.12843
G1 X96.408 Y99.691 E17.15455
G1 X96.581 Y100.107 E17.17103
G1 X96.597 Y99.819 E17.18159
G1 X96.716 Y99.115 E17.20771
G1 X96.914 Y98.429 E17.23383
G1 X97.187 Y97.769 E17.25996
G1 X97.531 Y97.143 E17.28609
G1 X97.944 Y96.56 E17.31223
G1 X98.426 Y96.021 E17.33869
G1 X98.555 Y95.892 E17.34536
G1 X99.087 Y95.416 E17.37148
G1 X99.669 Y95.002 E17.39761
G1 X100.294 Y94.657 E17.42373
G1 X100.954 Y94.383 E17.44987
G1 X101.64 Y94.184 E17.47601
G1 X102.344 Y94.064 E17.50214
G1 X103.066 Y94.023 E17.52859
G1 X127.119 Y94.024 E18.4086
G1 X126.577 Y93.64 E18.4329
G1 X126.038 Y93.158 E18.45936
G1 X125.909 Y93.029 E18.46603
G1 X125.433 Y92.497 E18.49215
G1 X125.019 Y91.915 E18.51828
G1 X124.674 Y91.29 E18.5444
G1 X124.4 Y90.63 E18.57054
G1 X124.201 Y89.944 E18.59668
G1 X124.081 Y89.24 E18.6228
G1 X124.04 Y88.518 E18.64926
G1 X124.04 Y68.776 E19.37155
G1 X124.08 Y68.063 E19.39767
G1 X124.199 Y67.359 E19.4238
G1 X124.397 Y66.673 E19.44992
G1 X124.67 Y66.013 E19.47605
G1 X125.014 Y65.387 E19.50218
G1 X125.427 Y64.804 E19.52832
G1 X125.909 Y64.265 E19.55478
G1 X126.038 Y64.136 E19.56145
G1 X126.57 Y63.66 E19.58757
G1 X127.152 Y63.246 E19.6137
G1 X127.777 Y62.901 E19.63982
G1 X128.437 Y62.627 E19.66596
G1 X129.123 Y62.428 E19.6921
G1 X129.827 Y62.308 E19.71822
G1 X130.549 Y62.267 E19.74468
G1 X132.291 Y62.267 E19.80841
G1 X133.004 Y62.307 E19.83454
G1 X133.708 Y62.426 E19.86066
G1 X134.394 Y62.624 E19.88679
G1 X135.054 Y62.897 E19.91292
G1 X135.68 Y63.241 E19.93905
G1 X136.263 Y63.654 E19.96519
G1 X136.802 Y64.136 E19.99164
G1 X136.931 Y64.265 E19.99832
G1 X137.407 Y64.797 E20.02444
G1 X137.821 Y65.379 E20.05057
G1 X138.166 Y66.004 E20.07669
G1 X138.44 Y66.664 E20.10283
G1 X138.639 Y67.35 E20.12896
G1 X138.759 Y68.054 E20.15509
G1 X138.8 Y68.776 E20.18155
G1 X138.8 Y80.267 E20.60196
G1 X142.291 Y80.267 E20.72968
G1 X143.004 Y80.307 E20.75581
G1 X143.708 Y80.426 E20.78193
G1 X144.394 Y80.624 E20.80806
G1 X145.054 Y80.897 E20.83419
G1 X145.68 Y81.241 E20.86032
G1 X146.263 Y81.654 E20.88646
G1 X146.802 Y82.136 E20.91291
G1 X146.931 Y82.265 E20.91959
G1 X147.407 Y82.797 E20.94571
G1 X147.821 Y83.379 E20.97184
G1 X148.166 Y84.004 E20.99796
G1 X148.44 Y84.664 E21.0241
G1 X148.639 Y85.35 E21.05023
G1 X148.759 Y86.054 E21.07636
G1 X148.8 Y86.776 E21.10282
G1 X148.8 Y98.017 E21.51408
G1 X151.291 Y98.017 E21.60522
G1 X152.004 Y98.057 E21.63135
G1 X152.708 Y98.176 E21.65747
G1 X153.394 Y98.374 E21.68359
G1 X154.054 Y98.647 E21.70972
G1 X154.68 Y98.991 E21.73586
G1 X155.263 Y99.404 E21.762
G1 X155.796 Y99.879 E21.78812
G1 X156.273 Y100.411 E21.81426
G1 X156.687 Y100.993 E21.84039
G1 X157.033 Y101.617 E21.86649
G1 X157.308 Y102.276 E21.89262
G1 X157.508 Y102.962 E21.91876
G1 X157.629 Y103.666 E21.9449
G1 X157.671 Y104.363 E21.97044
G1 X157.8 Y128.234 E22.8438
G1 X157.764 Y128.947 E22.86992
G1 X157.648 Y129.651 E22.89603
G1 X157.455 Y130.339 E22.92217
G1 X157.185 Y131 E22.94829
G1 X156.844 Y131.628 E22.97444
G1 X156.434 Y132.213 E23.00057
G1 X155.931 Y132.779 E23.02828
G1 X155.802 Y132.908 E23.03495
G1 X155.27 Y133.384 E23.06107
G1 X154.688 Y133.798 E23.0872
G1 X154.063 Y134.143 E23.11332
G1 X153.403 Y134.417 E23.13946
G1 X152.717 Y134.616 E23.1656
G1 X152.013 Y134.736 E23.19172
G1 X151.291 Y134.777 E23.21818
G1 X148.8 Y134.777 E23.30932
G1 X148.8 Y146.018 E23.72058
G1 X148.76 Y146.731 E23.74671
G1 X148.641 Y147.435 E23.77283
G1 X148.443 Y148.121 E23.79895
G1 X148.17 Y148.781 E23.82509
G1 X147.826 Y149.407 E23.85122
G1 X147.413 Y149.99 E23.87736
G1 X146.931 Y150.529 E23.90381
G1 X146.802 Y150.658 E23.91049
G1 X146.27 Y151.134 E23.9366
G1 X145.688 Y151.548 E23.96274
G1 X145.063 Y151.893 E23.98885
G1 X144.403 Y152.167 E24.015
G1 X143.717 Y152.366 E24.04113
G1 X143.013 Y152.486 E24.06726
G1 X142.291 Y152.527 E24.09372
G1 X138.8 Y152.527 E24.22144
G1 X138.8 Y164.018 E24.64185
G1 X138.76 Y164.731 E24.66798
G1 X138.641 Y165.435 E24.6941
G1 X138.443 Y166.121 E24.72022
G1 X138.17 Y166.781 E24.74635
G1 X137.826 Y167.407 E24.77249
G1 X137.413 Y167.99 E24.79863
G1 X136.931 Y168.529 E24.82508
G1 X136.802 Y168.658 E24.83176
G1 X136.27 Y169.134 E24.85787
G1 X135.688 Y169.548 E24.884
G1 X135.063 Y169.893 E24.91012
G1 X134.403 Y170.167 E24.93627
G1 X133.717 Y170.366 E24.9624
G1 X133.013 Y170.486 E24.98853
G1 X132.291 Y170.527 E25.01499
G1 X130.549 Y170.527 E25.07872
G1 X129.836 Y170.487 E25.10485
G1 X129.132 Y170.368 E25.13097
G1 X128.446 Y170.17 E25.15709
G1 X127.786 Y169.897 E25.18322
G1 X127.16 Y169.553 E25.20936
G1 X126.577 Y169.14 E25.2355
G1 X126.038 Y168.658 E25.26195
G1 X125.909 Y168.529 E25.26862
G1 X125.433 Y167.997 E25.29474
G1 X125.019 Y167.415 E25.32087
G1 X124.674 Y166.79 E25.34699
G1 X124.4 Y166.13 E25.37314
G1 X124.201 Y165.444 E25.39927
G1 X124.081 Y164.74 E25.4254
G1 X124.04 Y164.018 E25.45186
G1 X124.04 Y144.276 E26.17414
G1 X124.08 Y143.563 E26.20027
G1 X124.199 Y142.859 E26.22639
G1 X124.397 Y142.173 E26.25251
G1 X124.67 Y141.513 E26.27864
G1 X125.014 Y140.887 E26.30477
G1 X125.427 Y140.304 E26.33091
G1 X125.909 Y139.765 E26.35737
G1 X126.038 Y139.636 E26.36404
G1 X126.57 Y139.16 E26.39016
G1 X127.152 Y138.746 E26.41629
G1 X127.777 Y138.401 E26.44241
G1 X128.437 Y138.127 E26.46856
G1 X129.123 Y137.928 E26.49469
G1 X129.827 Y137.808 E26.52082
G1 X130.549 Y137.767 E26.54727
G1 X134.04 Y137.767 E26.675
G1 X134.04 Y133.303 E26.83832
G1 X133.643 Y133.863 E26.86343
G1 X133.161 Y134.402 E26.88989
G1 X133.032 Y134.531 E26.89656
G1 X132.5 Y135.007 E26.92268
G1 X131.918 Y135.421 E26.94881
G1 X131.293 Y135.766 E26.97493
G1 X130.633 Y136.04 E27.00107
G1 X129.947 Y136.239 E27.02721
G1 X129.243 Y136.359 E27.05333
G1 X128.521 Y136.4 E27.07979
G1 X101.779 Y136.4 E28.05818
G1 X101.066 Y136.36 E28.08431
G1 X100.362 Y136.241 E28.11043
G1 X99.676 Y136.043 E28.13655
G1 X99.016 Y135.77 E28.16268
G1 X98.39 Y135.426 E28.18881
G1 X97.807 Y135.013 E28.21495
G1 X97.268 Y134.531 E28.24141
G1 X97.139 Y134.402 E28.24808
G1 X96.663 Y133.87 E28.2742
G1 X96.249 Y133.288 E28.30033
G1 X95.904 Y132.663 E28.32645
G1 X95.63 Y132.003 E28.35259
G1 X95.431 Y131.317 E28.37873
G1 X95.311 Y130.613 E28.40486
G1 X95.27 Y129.891 E28.43131
G1 X95.27 Y128.808 E28.47094
G1 X95.188 Y128.89 E28.47518
G1 X94.656 Y129.366 E28.5013
G1 X94.074 Y129.78 E28.52743
G1 X93.449 Y130.125 E28.55355
G1 X92.789 Y130.399 E28.57969
G1 X92.103 Y130.598 E28.60582
G1 X91.399 Y130.718 E28.63195
G1 X90.677 Y130.759 E28.65841
G1 X65.801 Y130.759 E29.56853
G1 X65.088 Y130.719 E29.59465
G1 X64.672 Y130.658 E29.61004
G1 X64.344 Y130.599 E29.62223
G1 X63.649 Y130.434 E29.64836
G1 X62.977 Y130.191 E29.67451
G1 X62.364 Y129.891 E29.69948
G1 X62.063 Y129.723 E29.71209
G1 X61.459 Y129.341 E29.73823
G1 X60.903 Y128.893 E29.76436
G1 X60.307 Y128.28 E29.79564
G1 X60.296 Y128.266 E29.79629
G1 X57.186 Y128.264 E29.91007
G1 X57.186 Y139.499 E30.32112
G1 X60.275 Y139.499 E30.43413
